X: 18338
T: Humours Of Westport, The
R: reel
M: 4/4
K: Fmajor
|:F3 c dFcF|F/F/FcA BdcB|[AF]2 cF dFcF|BAGA BdcB|
[AF]2 cF dFcF|F/F/FcA BdcB|Acfa gecA|1 BAGA BdcA:|2 BAGA Bcde||
|:eff/f/e fcAc|eff/f/f efge|eff/f/e fcAc|BAGA Bcde|
eff/f/e fcAc|eff/f/f ef g2|afge fcAc|1 BAGA Bcde:|2 BAGA BdcA||

